X:463
T:Anthony Frawley's
R:jig
Z:hn-jig-463
M:6/8
L:1/8
K:G
GED GBA | GED G2A | GED GAB | dBA B2A |
GED GAB | def g2a | bag e/f/ge |1 dBG ABA :|2 dBG ABc ||
|: ~d3 edB | def gfe | ~d3 edB | dBA ABc |
~d3 edB | def g2a | bag e/f/ge |1 dBG ABc :|2 dBG ABA ||

